build/finance/PayrollCardSolid.svg

<svg xmlns="http://www.w3.org/2000/svg" fill="none" viewBox="0 0 24 24" focusable="false"><path d="M0 0H24V24H0z"/><path fill="#74767B" fill-rule="evenodd" d="M3.02807 7.58793C2.97545 7.97093 3.3134 8.28958 3.7 8.28958L20.3652 8.28958C20.7158 8.28958 21.0203 8.00377 20.9804 7.65543C20.821 6.26134 19.706 5.15759 18.3067 5.01549C18.2059 5.00525 18.1036 5 18 5L6 5C4.48294 5 3.22889 6.12605 3.02807 7.58793ZM6 19C4.34314 19 3 17.6569 3 16L3 10.2896C3 9.90298 3.3134 9.58958 3.7 9.58958L20.3 9.58957C20.6866 9.58957 21 9.90298 21 10.2896L21 16C21 17.6569 19.6569 19 18 19L6 19ZM12.975 11.3946C12.616 11.3946 12.325 11.6856 12.325 12.0446L12.325 16.5157C12.325 16.8747 12.616 17.1657 12.975 17.1657C13.334 17.1657 13.625 16.8747 13.625 16.5157L13.625 12.6946L15.6336 12.6946L15.6336 16.5157C15.6336 16.8747 15.9246 17.1657 16.2836 17.1657C16.6426 17.1657 16.9336 16.8747 16.9336 16.5157L16.9336 12.0446C16.9336 11.6856 16.6426 11.3946 16.2836 11.3946L12.975 11.3946ZM8.71199 12.7085C8.50506 12.7085 8.30446 12.7799 8.14406 12.9106L8.12724 12.9243C7.84898 13.1512 7.43954 13.1095 7.21273 12.8312C6.98591 12.553 7.02761 12.1435 7.30586 11.9167L7.32269 11.903C7.71506 11.5831 8.20577 11.4085 8.71199 11.4085L9.17024 11.4085C10.1316 11.4085 10.9109 12.1878 10.9109 13.1491C10.9109 13.5365 10.7843 13.8943 10.5704 14.1834C10.8552 14.5003 11.0286 14.9195 11.0286 15.3792C11.0286 16.3675 10.2274 17.1687 9.23913 17.1687L8.75757 17.1687C8.2353 17.1687 7.72898 16.9887 7.32393 16.659L7.30622 16.6446C7.0278 16.4179 6.98582 16.0085 7.21244 15.7301C7.43906 15.4517 7.84847 15.4097 8.12688 15.6363L8.1446 15.6508C8.31778 15.7917 8.53426 15.8687 8.75757 15.8687L9.23913 15.8687C9.50945 15.8687 9.72858 15.6496 9.72858 15.3792C9.72858 15.1089 9.50944 14.8898 9.23913 14.8898L9.14743 14.8898L9.13936 14.8897L9.08416 14.8897C8.72517 14.8897 8.43416 14.5987 8.43416 14.2397C8.43416 13.8808 8.72517 13.5897 9.08416 13.5897L9.17024 13.5897C9.41359 13.5897 9.61086 13.3925 9.61087 13.1491C9.61087 12.9058 9.41359 12.7085 9.17024 12.7085L8.71199 12.7085Z"/></svg>

<svg xmlns="http://www.w3.org/2000/svg" fill="none" viewBox="0 0 24 24" focusable="false"><path fill="#74767B" fill-rule="evenodd" d="M3.7 8.28c-.39 0-.73-.31-.68-.7A3 3 0 0 1 6 5h12c.1 0 .2 0 .3.01a3.01 3.01 0 0 1 2.68 2.64c.04.35-.27.63-.62.63zM6 19c-1.66 0-3-1.35-3-3v-5.72c0-.38.31-.7.7-.7h16.59c.39 0 .71.32.71.7V16c0 1.65-1.35 3-3 3zm6.97-7.61c-.36 0-.65.29-.65.65v4.47c0 .36.29.65.65.65s.65-.29.65-.65v-3.82h2.01v3.82c0 .36.29.65.65.65s.65-.29.65-.65v-4.47c0-.36-.29-.65-.65-.65zM8.71 12.7c-.21 0-.41.07-.57.21l-.02.01c-.28.23-.69.18-.91-.09a.65.65 0 0 1 .09-.92l.02-.01c.39-.32.88-.5 1.39-.5h.46c.96 0 1.74.78 1.74 1.74 0 .39-.13.75-.34 1.04.28.32.45.73.45 1.19 0 .99-.8 1.79-1.79 1.79h-.48c-.52 0-1.03-.18-1.43-.51l-.02-.01a.64.64 0 0 1-.09-.91.64.64 0 0 1 .91-.1l.02.02c.17.14.39.21.61.21h.48a.49.49 0 0 0 0-.98h-.15c-.36 0-.65-.29-.65-.65 0-.35.29-.65.65-.65h.09c.24 0 .44-.19.44-.44 0-.24-.2-.44-.44-.44z"/></svg>
